resources/svg/paragraph-align-right.svg

<svg xmlns="http://www.w3.org/2000/svg" fill="none" viewBox="0 0 14 14"><path fill="currentColor" fill-rule="evenodd" d="M13.2316 0.25C13.6458 0.25 13.9816 0.585786 13.9816 1C13.9816 1.41421 13.6458 1.75 13.2316 1.75H0.768311C0.354097 1.75 0.0183105 1.41421 0.0183105 1C0.0183105 0.585786 0.354097 0.25 0.768311 0.25H13.2316ZM13.2316 4.25C13.6458 4.25 13.9816 4.58579 13.9816 5C13.9816 5.41421 13.6458 5.75 13.2316 5.75H4.3034C3.88918 5.75 3.5534 5.41421 3.5534 5C3.5534 4.58579 3.88918 4.25 4.3034 4.25H13.2316ZM13.9816 13C13.9816 12.5858 13.6458 12.25 13.2316 12.25H0.768311C0.354097 12.25 0.0183105 12.5858 0.0183105 13C0.0183105 13.4142 0.354097 13.75 0.768311 13.75H13.2316C13.6458 13.75 13.9816 13.4142 13.9816 13ZM13.2316 8.25C13.6458 8.25 13.9816 8.58579 13.9816 9C13.9816 9.41421 13.6458 9.75 13.2316 9.75H4.3034C3.88918 9.75 3.5534 9.41421 3.5534 9C3.5534 8.58579 3.88918 8.25 4.3034 8.25H13.2316Z" clip-rule="evenodd"></path></svg>

<svg xmlns="http://www.w3.org/2000/svg" fill="none" viewBox="0 0 14 14"><path fill="currentColor" fill-rule="evenodd" d="M13.232.25a.75.75 0 0 1 0 1.5H.768a.75.75 0 0 1 0-1.5h12.464Zm0 4a.75.75 0 0 1 0 1.5H4.303a.75.75 0 1 1 0-1.5h8.929Zm.75 8.75a.75.75 0 0 0-.75-.75H.768a.75.75 0 0 0 0 1.5h12.464a.75.75 0 0 0 .75-.75Zm-.75-4.75a.75.75 0 0 1 0 1.5H4.303a.75.75 0 1 1 0-1.5h8.929Z" clip-rule="evenodd"/></svg>
